;sub-2
;bell
@13v50

r1
r1
r1
r1
; 4
g32 a32 b16 g32 a32 b16 g32 a32 b16 g32 a32 b16 g32 a32 b16 g32 a32 b16 g32 a32 b16 g32 a32 b16
g32 a32 b16 g32 a32 b16 g32 a32 b16 g32 a32 b16 g32 a32 b16 g32 a32 b16 g32 a32 b16 g32 a32 b16
g32 a32 b16 g32 a32 b16 g32 a32 b16 g32 a32 b16 g32 a32 b16 g32 a32 b16 g32 a32 b16 g32 a32 b16
g32 a32 b16 g32 a32 b16 g32 a32 b16 g32 a32 b16 g32 a32 b16 g32 a32 b16 g32 a32 b16 g32 a32 b16
; 8
g32 a32 b16 g32 a32 b16 g32 a32 b16 g32 a32 b16 g32 a32 b16 g32 a32 b16 g32 a32 b16 g32 a32 b16
g32 a32 b16 g32 a32 b16 g32 a32 b16 g32 a32 b16 g32 a32 b16 g32 a32 b16 g32 a32 b16 g32 a32 b16
g32 a32 b16 g32 a32 b16 g32 a32 b16 g32 a32 b16 g32 a32 b16 g32 a32 b16 g32 a32 b16 g32 a32 b16
g32 a32 b16 g32 a32 b16 g32 a32 b16 g32 a32 b16 g32 a32 b16 g32 a32 b16 g32 a32 b16 g32 a32 b16
; 12
g32 a32 b16 g32 a32 b16 g32 a32 b16 g32 a32 b16 g32 a32 b16 g32 a32 b16 g32 a32 b16 g32 a32 b16
g32 a32 b16 g32 a32 b16 g32 a32 b16 g32 a32 b16 g32 a32 b16 g32 a32 b16 g32 a32 b16 g32 a32 b16
g32 a32 b16 g32 a32 b16 g32 a32 b16 g32 a32 b16 g32 a32 b16 g32 a32 b16 g32 a32 b16 g32 a32 b16
g32 a32 b16 g32 a32 b16 g32 a32 b16 g32 a32 b16 g32 a32 b16 g32 a32 b16 g32 a32 b16 g32 a32 b16
; 16
g32 a32 b16 g32 a32 b16 g32 a32 b16 g32 a32 b16 g32 a32 b16 g32 a32 b16 g32 a32 b16 g32 a32 b16
g32 a32 b16 g32 a32 b16 g32 a32 b16 g32 a32 b16 g32 a32 b16 g32 a32 b16 g32 a32 b16 g32 a32 b16
g32 a32 b16 g32 a32 b16 g32 a32 b16 g32 a32 b16 g32 a32 b16 g32 a32 b16 g32 a32 b16 g32 a32 b16
g32 a32 b16 g32 a32 b16 g32 a32 b16 g32 a32 b16 g32 a32 b16 g32 a32 b16 g32 a32 b16 g32 a32 b16
; 20
r1
r1
r1
r1
; 24
g32 a32 b16 g32 a32 b16 g32 a32 b16 g32 a32 b16 g32 a32 b16 g32 a32 b16 g32 a32 b16 g32 a32 b16
g32 a32 b16 g32 a32 b16 g32 a32 b16 g32 a32 b16 g32 a32 b16 g32 a32 b16 g32 a32 b16 g32 a32 b16
g32 a32 b16 g32 a32 b16 g32 a32 b16 g32 a32 b16 g32 a32 b16 g32 a32 b16 g32 a32 b16 g32 a32 b16
g32 a32 b16 g32 a32 b16 g32 a32 b16 g32 a32 b16 g32 a32 b16 g32 a32 b16 g32 a32 b16 g32 a32 b16
; 28
g32 a32 b16 g32 a32 b16 g32 a32 b16 g32 a32 b16 g32 a32 b16 g32 a32 b16 g32 a32 b16 g32 a32 b16
g32 a32 b16 g32 a32 b16 g32 a32 b16 g32 a32 b16 g32 a32 b16 g32 a32 b16 g32 a32 b16 g32 a32 b16
g32 a32 b16 g32 a32 b16 g32 a32 b16 g32 a32 b16 g32 a32 b16 g32 a32 b16 g32 a32 b16 g32 a32 b16
g32 a32 b16 g32 a32 b16 g32 a32 b16 g32 a32 b16 g32 a32 b16 g32 a32 b16 g32 a32 b16 g32 a32 b16
; 32
g32 a32 b16 g32 a32 b16 g32 a32 b16 g32 a32 b16 g32 a32 b16 g32 a32 b16 g32 a32 b16 g32 a32 b16
g32 a32 b16 g32 a32 b16 g32 a32 b16 g32 a32 b16 g32 a32 b16 g32 a32 b16 g32 a32 b16 g32 a32 b16
g32 a32 b16 g32 a32 b16 g32 a32 b16 g32 a32 b16 g32 a32 b16 g32 a32 b16 g32 a32 b16 g32 a32 b16
g32 a32 b16 g32 a32 b16 g32 a32 b16 g32 a32 b16 g32 a32 b16 g32 a32 b16 g32 a32 b16 g32 a32 b16
; 36
g32 a32 b16 g32 a32 b16 g32 a32 b16 g32 a32 b16 g32 a32 b16 g32 a32 b16 g32 a32 b16 g32 a32 b16
g32 a32 b16 g32 a32 b16 g32 a32 b16 g32 a32 b16 g32 a32 b16 g32 a32 b16 g32 a32 b16 g32 a32 b16
g32 a32 b16 g32 a32 b16 g32 a32 b16 g32 a32 b16 g32 a32 b16 g32 a32 b16 g32 a32 b16 g32 a32 b16
g32 a32 b16 g32 a32 b16 g32 a32 b16 g32 a32 b16 g32 a32 b16 g32 a32 b16 g32 a32 b16 g32 a32 b16
; 40
g32 a32 b16 g32 a32 b16 g32 a32 b16 g32 a32 b16 g32 a32 b16 g32 a32 b16 g32 a32 b16 g32 a32 b16
v35 g32 a32 b16 g32 a32 b16 g32 a32 b16 g32 a32 b16 g32 a32 b16 g32 a32 b16 g32 a32 b16 g32 a32 b16
v20 g32 a32 b16 g32 a32 b16 g32 a32 b16 g32 a32 b16 g32 a32 b16 g32 a32 b16 g32 a32 b16 g32 a32 b16
v5 g32 a32 b16 g32 a32 b16 g32 a32 b16 g32 a32 b16 g32 a32 b16 g32 a32 b16 g32 a32 b16 g32 a32 b16
